humanity-icon-theme/Humanity/categories/16/applications-internet.svg

<?xml version="1.0" encoding="UTF-8" standalone="no"?>
<!-- Created with Inkscape (http://www.inkscape.org/) -->

<svg
   xmlns:svg="http://www.w3.org/2000/svg"
   xmlns="http://www.w3.org/2000/svg"
   xmlns:xlink="http://www.w3.org/1999/xlink"
   version="1.0"
   width="16"
   height="16"
   id="svg11300">
  <defs
     id="defs3">
    <linearGradient
       id="linearGradient6321">
      <stop
         id="stop6323"
         style="stop-color:#debc8c;stop-opacity:1"
         offset="0" />
      <stop
         id="stop6325"
         style="stop-color:#f4ac72;stop-opacity:1"
         offset="1" />
    </linearGradient>
    <linearGradient
       id="linearGradient6493">
      <stop
         id="stop6495"
         style="stop-color:#4580d4;stop-opacity:1"
         offset="0" />
      <stop
         id="stop6497"
         style="stop-color:#114796;stop-opacity:1"
         offset="1" />
    </linearGradient>
    <linearGradient
       id="linearGradient4103">
      <stop
         id="stop4105"
         style="stop-color:#4494fa;stop-opacity:1"
         offset="0" />
      <stop
         id="stop4107"
         style="stop-color:#2f5c95;stop-opacity:1"
         offset="1" />
    </linearGradient>
    <linearGradient
       id="linearGradient3156">
      <stop
         id="stop3158"
         style="stop-color:#ffffff;stop-opacity:1"
         offset="0" />
      <stop
         id="stop3160"
         style="stop-color:#ffffff;stop-opacity:0"
         offset="1" />
    </linearGradient>
    <radialGradient
       cx="21.790195"
       cy="13.687771"
       r="14"
       fx="21.790195"
       fy="7.2263036"
       id="radialGradient5507"
       xlink:href="#linearGradient3156"
       gradientUnits="userSpaceOnUse"
       gradientTransform="matrix(0.499999,0,0,0.3571432,-4.87496,-0.5357134)" />
    <radialGradient
       cx="127.5625"
       cy="40.59375"
       r="5.9999995"
       fx="127.5625"
       fy="40.59375"
       id="radialGradient5510"
       xlink:href="#linearGradient3156"
       gradientUnits="userSpaceOnUse"
       gradientTransform="matrix(1.1730593,0,0,1.1730592,-144.49771,-44.787676)" />
    <radialGradient
       cx="7.7404661"
       cy="5.6846404"
       r="5.9999995"
       fx="7.7404661"
       fy="5.6846404"
       id="radialGradient5513"
       xlink:href="#linearGradient6321"
       gradientUnits="userSpaceOnUse"
       gradientTransform="matrix(1.6565001,0.0652937,-0.05214652,1.3024184,-5.1137755,-2.5597217)" />
    <radialGradient
       cx="20.910566"
       cy="16.532696"
       r="22.463524"
       fx="20.910566"
       fy="16.532696"
       id="radialGradient5516"
       xlink:href="#linearGradient4103"
       gradientUnits="userSpaceOnUse"
       gradientTransform="matrix(0.6255678,0.01029083,-0.00821547,0.4992172,-6.2261103,-3.1413483)" />
    <linearGradient
       x1="130"
       y1="43.84375"
       x2="130"
       y2="52"
       id="linearGradient5518"
       xlink:href="#linearGradient6493"
       gradientUnits="userSpaceOnUse"
       gradientTransform="matrix(1.1536237,0,0,1.1536228,-141.97107,-43.913026)" />
  </defs>
  <g
     id="g5520">
    <path
       d="m 15.499982,8.0000006 c 0,4.1399914 -3.359995,7.4999824 -7.4999936,7.4999824 -4.1399737,0 -7.49997111,-3.359991 -7.49997111,-7.4999824 0,-4.1399909 3.35999741,-7.49998299 7.49997111,-7.49998299 4.1399986,0 7.4999936,3.35999209 7.4999936,7.49998299 z"
       id="path6719"
       style="fill:url(#radialGradient5516);fill-opacity:1;stroke:url(#linearGradient5518);stroke-width:1.00003457;stroke-linecap:round;stroke-linejoin:round;stroke-miterlimit:4;stroke-opacity:1;stroke-dasharray:none;stroke-dashoffset:0" />
    <path
       d="M 14.8,6.3621512 14.72563,6.6208083 C 14.505566,6.4558579 14.258482,6.3171416 14.007577,6.1722651 l -0.550765,0.051547 -0.503195,-0.3617933 0,0.4477468 0.431112,0.2074873 0.286946,0.2066913 0.383474,-0.2758397 c 0.09653,0.1149961 0.191737,0.229992 0.287606,0.3449881 l 0,0.3446111 -0.43177,0.3102041 -0.790141,0.344988 L 12.522441,8.1727097 12.138967,7.896032 12.330704,7.5858275 11.947823,7.3099883 11.30119,6.4308804 l -0.550766,-0.396158 -0.144166,0.1031361 0.216181,0.5001322 0.406668,0.2930218 c 0.232258,0.4264575 0.462013,0.8340564 0.767013,1.2416972 0.472951,0 0.918821,-0.031934 1.388543,-0.069567 l 0,0.2414749 -0.574618,0.8964996 -0.526979,0.3789759 -0.431111,0.5868819 c 0,0.321686 0,0.643375 0,0.965019 l 0.144165,0.379815 -0.239376,0.171907 -0.527637,0.207068 -0.550766,0.293021 0.455557,0.32743 -0.622849,0.345407 0.119654,0.223454 -0.9343049,0.672836 -0.6221895,0 L 8.5472285,14 l -0.3359013,0 0,-0.27584 -0.1428477,-0.552517 C 7.883134,12.825398 7.6901457,12.481625 7.4938619,12.137852 c 0,-0.253754 0.023786,-0.505035 0.047638,-0.758748 L 7.7815336,11.034494 7.4456314,10.620315 7.4700764,10.051453 7.0145202,9.724025 7.2422982,9.2500853 6.8716725,8.9826274 l -0.6472924,0 L 6.0088572,8.8275254 5.3622229,9.086392 5.099063,8.8962963 4.5000003,9.2238929 C 4.0933339,8.9306611 3.686008,8.6376393 3.278749,8.3446174 L 2.8,7.6202344 3.2311113,7.2068944 2.9917369,7.0346099 3.5180574,6.2410364 C 3.9504863,5.8988983 4.4021551,5.5706733 4.859029,5.2412332 L 5.6736139,5.1033134 6.5834749,5.034542 7.206323,5.1380971 8.0923317,5.7065394 8.4037882,5.4826662 l 0.4304524,-0.034365 0.814585,0.1722846 0.6228494,0 0.431111,-0.241475 L 10.894522,5.2068265 10.462752,5.034542 9.7440357,5.0001773 C 9.5445899,4.824205 9.3592443,4.639222 9.122439,4.4828631 L 8.8824058,4.551634 8.786537,5.0001773 8.3554257,4.6899728 8.2602164,4.3445657 7.7814674,4.1039292 l -0.1923956,0 L 8.0684135,4.4485398 7.8766767,4.7587443 7.4937966,4.8275157 7.733171,4.5173113 7.3014003,4.3798105 6.9191787,4.1039712 6.1998032,4.2071069 6.1045939,4.3446077 5.6734825,4.5173113 5.4341081,4.8967062 4.8357042,5.0861728 4.5718855,4.8967062 l -0.2869468,0 0,-0.6208278 0.6228481,-0.2070683 0.478749,0 L 5.2900089,3.8277545 4.9077868,3.5862795 5.5538283,3.4999064 5.912857,3.2416684 6.1998032,2.931045 l 0.5276388,0 -0.1441652,-0.2410556 0.3359019,-0.1379199 0,0.2758394 L 7.6372362,2.931045 8.3552943,2.5520695 8.4035248,2.3793661 9.025714,2.1037358 C 8.8005058,2.121547 8.5752976,2.1346219 8.3552283,2.1727168 l 0,-0.3105815 0.2393744,-0.3448206 -0.2393744,0 L 7.8291711,1.8275191 7.6850059,2.0000132 7.8291711,2.2416976 7.5891379,2.6550377 7.2062569,2.5171179 6.8716725,2.2760623 6.3440343,2.5171179 6.1522976,1.9656485 7.0621578,1.5864631 l 0,-0.2070685 L 7.6373683,1.1381294 8.5472285,1 9.1700766,1.1381294 10.0323,1.4827405 l -0.6228489,0 L 10.0323,1.8965 10.511049,1.551889 c 0,0 1.905026,0.8626761 2.888956,2.0557356 C 14.357387,4.7684954 14.758138,6.087946 14.8,6.3621512 z"
       id="path6723"
       style="fill:url(#radialGradient5513);fill-opacity:1;fill-rule:nonzero;stroke:none" />
    <path
       d="m 14.499818,8.0000001 c 0,3.5878959 -2.911921,6.4998169 -6.4998419,6.4998169 -3.5878962,0 -6.4997935,-2.911921 -6.4997935,-6.4998169 0,-3.5879013 2.9118973,-6.4998181 6.4997935,-6.4998181 3.5879209,0 6.4998419,2.9119168 6.4998419,6.4998181 z"
       id="path6727"
       style="opacity:0.3;fill:none;stroke:url(#radialGradient5510);stroke-width:1.00036526;stroke-linecap:round;stroke-linejoin:round;stroke-miterlimit:4;stroke-opacity:1;stroke-dasharray:none;stroke-dashoffset:0" />
    <path
       d="M 15,5.7211433 C 15,8.4811457 11.864012,10 8,10 4.1360116,10 1,8.4811457 1,5.7211433 1,2.9611411 4.1360116,0 8,0 c 3.864012,0 7,2.9611411 7,5.7211433 z"
       id="path6729"
       style="opacity:0.3;fill:url(#radialGradient5507);fill-opacity:1;stroke:none" />
  </g>
</svg>

<?xml version="1.0" encoding="UTF-8" standalone="no"?>
<!-- Created with Inkscape (http://www.inkscape.org/) -->
<svg id="svg11300" xmlns="http://www.w3.org/2000/svg" height="16" width="16" version="1.0" xmlns:xlink="http://www.w3.org/1999/xlink">
 <defs id="defs3">
  <linearGradient id="linearGradient3156">
   <stop id="stop3158" style="stop-color:#fff" offset="0"/>
   <stop id="stop3160" style="stop-color:#fff;stop-opacity:0" offset="1"/>
  </linearGradient>
  <radialGradient id="radialGradient5507" fy="7.2263" xlink:href="#linearGradient3156" gradientUnits="userSpaceOnUse" cy="13.688" cx="21.79" gradientTransform="matrix(0.5 0 0 .35714 -4.875 -.53571)" r="14"/>
  <radialGradient id="radialGradient5510" xlink:href="#linearGradient3156" gradientUnits="userSpaceOnUse" cy="40.594" cx="127.56" gradientTransform="matrix(1.1731 0 0 1.1731 -144.5 -44.788)" r="6"/>
  <radialGradient id="radialGradient5513" gradientUnits="userSpaceOnUse" cy="5.6846" cx="7.7405" gradientTransform="matrix(1.6565 .065294 -.052147 1.3024 -5.1138 -2.5597)" r="6">
   <stop id="stop6323" style="stop-color:#debc8c" offset="0"/>
   <stop id="stop6325" style="stop-color:#f4ac72" offset="1"/>
  </radialGradient>
  <radialGradient id="radialGradient5516" gradientUnits="userSpaceOnUse" cy="16.533" cx="20.911" gradientTransform="matrix(.62557 .010291 -.0082155 .49922 -6.2261 -3.1413)" r="22.464">
   <stop id="stop4105" style="stop-color:#4494fa" offset="0"/>
   <stop id="stop4107" style="stop-color:#2f5c95" offset="1"/>
  </radialGradient>
  <linearGradient id="linearGradient5518" y2="52" gradientUnits="userSpaceOnUse" x2="130" gradientTransform="matrix(1.1536 0 0 1.1536 -141.97 -43.913)" y1="43.844" x1="130">
   <stop id="stop6495" style="stop-color:#4580d4" offset="0"/>
   <stop id="stop6497" style="stop-color:#114796" offset="1"/>
  </linearGradient>
 </defs>
 <g id="g5520">
  <path id="path6719" style="stroke-linejoin:round;stroke:url(#linearGradient5518);stroke-linecap:round;fill:url(#radialGradient5516)" d="m15.5 8c0 4.14-3.36 7.5-7.5 7.5s-7.5-3.36-7.5-7.5 3.36-7.5 7.5-7.5 7.5 3.36 7.5 7.5z"/>
  <path id="path6723" style="fill:url(#radialGradient5513)" d="m14.8 6.3622-0.074 0.2586c-0.22-0.1649-0.468-0.3037-0.718-0.4485l-0.55076 0.051547-0.5032-0.36179v0.44775l0.43111 0.20749 0.28695 0.20669 0.38347-0.27584c0.09653 0.115 0.19174 0.22999 0.28761 0.34499v0.34461l-0.43177 0.3102-0.79014 0.34499-0.6 0.3797-0.383-0.2767 0.192-0.3102-0.383-0.2758-0.647-0.8791-0.55077-0.39616-0.14417 0.10314 0.21618 0.50013 0.40667 0.29302c0.23226 0.42646 0.46201 0.83406 0.76701 1.2417 0.47295 0 0.91882-0.031934 1.3885-0.069567v0.24147l-0.57462 0.8965-0.52698 0.37898-0.43111 0.58688v0.96502l0.14416 0.37982-0.23938 0.17191-0.52764 0.20707-0.55077 0.29302 0.45556 0.32743-0.62285 0.34541 0.11965 0.22345-0.9343 0.67284h-0.62219l-0.5261 0.207h-0.3359v-0.27584l-0.14285-0.55252c-0.1853-0.347-0.3783-0.69-0.5745-1.034 0-0.25375 0.023786-0.50504 0.047638-0.75875l0.24-0.345-0.3359-0.414 0.0245-0.569-0.4556-0.327 0.2278-0.4739-0.3706-0.2675h-0.64729l-0.2155-0.1551-0.6467 0.2589-0.2631-0.1901-0.5991 0.3276c-0.4067-0.2932-0.814-0.5863-1.2213-0.8793l-0.4787-0.7244 0.4311-0.4133-0.2394-0.1723 0.5264-0.7936c0.4324-0.3421 0.8841-0.6703 1.3409-0.9998l0.8146-0.1379 0.9099-0.0688 0.6228 0.1036 0.886 0.5684 0.3115-0.2238 0.43045-0.034365 0.81458 0.17228h0.62285l0.43111-0.24148 0.192-0.1723-0.432-0.1723-0.719-0.0343c-0.1994-0.176-0.3848-0.361-0.6216-0.5173l-0.24 0.0687-0.0959 0.4486-0.4311-0.3102-0.0952-0.3454-0.4787-0.2407h-0.1924l0.4793 0.3446-0.1917 0.3102-0.3829 0.0688 0.2394-0.3102-0.4318-0.1375-0.3822-0.2758-0.7194 0.1031-0.0952 0.1375-0.4311 0.1727-0.2394 0.3794-0.5984 0.1895-0.2638-0.1895h-0.28695v-0.62083l0.62285-0.20707h0.47875l-0.0966-0.241-0.3822-0.2415 0.646-0.0864 0.3591-0.2582 0.2869-0.3107h0.52764l-0.14417-0.24106 0.3359-0.13792v0.27584l0.718 0.1031 0.7181-0.3789 0.0482-0.1727 0.6222-0.2757c-0.2252 0.0178-0.4504 0.0309-0.6705 0.069v-0.31058l0.23937-0.34482h-0.23937l-0.526 0.3102-0.1442 0.1725 0.1442 0.2417-0.2401 0.4133-0.3828-0.1379-0.3346-0.241-0.5277 0.241-0.1917-0.5515 0.9099-0.3791v-0.20707l0.5752-0.2413 0.9098-0.1381 0.6229 0.1381 0.8619 0.3446h-0.62285l0.6228 0.4138 0.479-0.3446s1.905 0.86268 2.889 2.0557c0.957 1.1609 1.358 2.4803 1.4 2.7546z"/>
  <path id="path6727" style="opacity:.3;stroke-linejoin:round;stroke:url(#radialGradient5510);stroke-linecap:round;stroke-width:1.0004;fill:none" d="m14.5 8c0 3.5879-2.9119 6.4998-6.4998 6.4998s-6.4998-2.9119-6.4998-6.4998 2.9119-6.4998 6.4998-6.4998 6.4998 2.9119 6.4998 6.4998z"/>
  <path id="path6729" style="opacity:.3;fill:url(#radialGradient5507)" d="m15 5.7211c0 2.76-3.136 4.2789-7 4.2789s-7-1.5189-7-4.2789 3.136-5.7211 7-5.7211 7 2.9611 7 5.7211z"/>
 </g>
</svg>
